X: 30806
T: Otter's Holt, The
R: reel
M: 4/4
K: Bminor
e|:fBBA FEFB|(3ABA FB ABde|fBBA FEFA|(3Bcd cA Bcde|
fBBA FEFB|(3ABA FB ABde|faaf effe|1 dBBA ~B3e:|2 dBAF B3c||
d2 fd Adfa|bfaf effe|(3ddd fd Adfa|bfaf egfe|
defd Adfa|bfaf efde|fBBA FEFA|(3Bcd cA B3c|
~d3f a2 fa|(3baf af effe|d2 fd adfa|bfaf effe|
dcdf a2 fa|(3baf af effe|fBBA FEFA|(3Bcd cA ~B3e||

